X:187
T:The Doldrum
M:6/8
L:1/8
S:Colin Hume's website,  colinhume.com  - chords can also be printed below the stave.
Q:3/8=120
K:C
P:A
|:G | "C"c2c cBc | "G"d2d def | "C"gec "G"BAG | "C"c2c c2G |\
"Am"c2c cBc | "Dm"d2d def | "C"gec "G"BAG | "C"c2c c2 :|
P:B
|: e/f/ | "C"g2g ece | "Dm"d2d "G"BGB | "C"g2g ece | "G"d3- d2 e/f/ |\
"C"g2g ece | "Dm"d2d "G"BGB | "C"gec "G"BAG | "C"c3- c2 :|

